symbols-de/shields/motorway_11x4.svg

<?xml version="1.0" encoding="UTF-8" standalone="no"?>
<svg
   xmlns:dc="http://purl.org/dc/elements/1.1/"
   xmlns:cc="http://creativecommons.org/ns#"
   xmlns:rdf="http://www.w3.org/1999/02/22-rdf-syntax-ns#"
   xmlns:svg="http://www.w3.org/2000/svg"
   xmlns="http://www.w3.org/2000/svg"
   xmlns:sodipodi="http://sodipodi.sourceforge.net/DTD/sodipodi-0.dtd"
   xmlns:inkscape="http://www.inkscape.org/namespaces/inkscape"
   width="100%"
   height="100%"
   viewBox="0 0 74.0 42.0"
   id="svg2"
   version="1.1"
   inkscape:version="0.91 r13725"
   sodipodi:docname="autobahn_11x4.svg">
  <metadata
     id="metadata9">
    <rdf:RDF>
      <cc:Work
         rdf:about="">
        <dc:format>image/svg+xml</dc:format>
        <dc:type
           rdf:resource="http://purl.org/dc/dcmitype/StillImage" />
        <dc:title></dc:title>
      </cc:Work>
    </rdf:RDF>
  </metadata>
  <defs
     id="defs7" />
  <sodipodi:namedview
     pagecolor="#ffffff"
     bordercolor="#666666"
     borderopacity="1"
     objecttolerance="10"
     gridtolerance="10"
     guidetolerance="10"
     inkscape:pageopacity="0"
     inkscape:pageshadow="2"
     inkscape:window-width="1067"
     inkscape:window-height="627"
     id="namedview5"
     showgrid="false"
     inkscape:zoom="4.7702703"
     inkscape:cx="37"
     inkscape:cy="21"
     inkscape:window-x="579"
     inkscape:window-y="130"
     inkscape:window-maximized="0"
     inkscape:current-layer="svg2" />
  <path
     style="fill:#365eaf;fill-opacity:1;stroke:#0528a2;stroke-width:1;stroke-miterlimit:4;stroke-dasharray:none;stroke-opacity:1"
     d="m 37,0.499998 c -0.523294,0 -0.78418,0.0033 -0.78418,0.01172 L 1.679009,2.281249 C 0.894063,2.366099 0.5,2.494362 0.5,2.664062 c 0,12.223958 0,24.447916 0,36.671875 0,0.169699 0.394063,0.297965 1.179009,0.382812 L 36.21582,41.48828 c 0,0.0085 0.260891,0.01172 0.78418,0.01172 0.523298,0 0.78418,-0.0033 0.78418,-0.01172 l 34.536809,-1.769532 c 0.78495,-0.08485 1.17901,-0.213113 1.17901,-0.382812 0,-12.223958 0,-24.447917 0,-36.671875 0,-0.1697 -0.39406,-0.297965 -1.17901,-0.382813 L 37.78418,0.511717 c 0,-0.0085 -0.26089,-0.01172 -0.78418,-0.01172 z"
     id="path6"
     inkscape:connector-curvature="0"
     sodipodi:nodetypes="sccccccsccccccs" />
</svg>

<?xml version="1.0" encoding="UTF-8"?>
<svg xmlns="http://www.w3.org/2000/svg" xmlns:xlink="http://www.w3.org/1999/xlink" width="78pt" height="54pt" viewBox="0 0 78 54" version="1.1">
<g id="surface1">
<path style="fill-rule:nonzero;fill:rgb(21.176471%,36.862745%,68.627451%);fill-opacity:1;stroke-width:1;stroke-linecap:butt;stroke-linejoin:miter;stroke:rgb(1.960784%,15.686275%,63.529412%);stroke-opacity:1;stroke-miterlimit:4;" d="M 37 0.501302 C 36.477464 0.501302 36.214343 0.50434 36.214343 0.510417 L 1.678786 2.281684 C 0.893129 2.366753 0.5003 2.494358 0.5003 2.664497 C 0.5003 14.887153 0.5003 27.112847 0.5003 39.335503 C 0.5003 39.505642 0.893129 39.633247 1.678786 39.718316 L 36.214343 41.489583 C 36.214343 41.49566 36.477464 41.498698 37 41.498698 C 37.522536 41.498698 37.785657 41.49566 37.785657 41.489583 L 72.321214 39.718316 C 73.106871 39.633247 73.4997 39.505642 73.4997 39.335503 C 73.4997 27.112847 73.4997 14.887153 73.4997 2.664497 C 73.4997 2.494358 73.106871 2.366753 72.321214 2.281684 L 37.785657 0.510417 C 37.785657 0.50434 37.522536 0.501302 37 0.501302 Z M 37 0.501302 " transform="matrix(1.054054,0,0,1.285714,0,0)"/>
</g>
</svg>
